icons/svg/visual-studio-code.svg

<svg width="24" height="24" viewBox="0 0 24 24" fill="none" xmlns="http://www.w3.org/2000/svg">
<path d="M15.6954 16.3179L10.3332 12M15.6954 16.3179V7.68209M15.6954 16.3179V18.4975C15.6954 19.1779 15.4252 19.8304 14.9441 20.3114V20.3114M10.3332 12L15.6954 7.68209M10.3332 12L7.82805 9.98276M15.6954 7.68209V5.50242C15.6954 4.82208 15.4252 4.1696 14.9441 3.68852V3.68852M7.82805 14.0172L4.31236 16.8482C4.06979 17.0435 3.71893 17.0243 3.49913 16.8036L2.42751 15.7279C2.18206 15.4815 2.19251 15.0799 2.45044 14.8466L5.59777 12M7.82805 14.0172L14.2845 19.8568C14.4863 20.0394 14.7084 20.1913 14.9441 20.3114M7.82805 14.0172L5.59777 12M5.59777 12L2.45044 9.15332C2.19251 8.92002 2.18206 8.51844 2.42751 8.27204L3.49913 7.19632C3.71893 6.97568 4.06979 6.95648 4.31236 7.1518L7.82805 9.98276M7.82805 9.98276L14.2845 4.14315C14.4863 3.96055 14.7084 3.80861 14.9441 3.68852M14.9441 20.3114C15.1829 20.4332 15.4357 20.5222 15.6954 20.5772C16.2751 20.7 16.8894 20.6536 17.4609 20.4241L19.795 19.4869C20.3719 19.2552 20.75 18.696 20.75 18.0743V5.92561C20.75 5.30392 20.3719 4.74471 19.795 4.51306L17.4609 3.57586C16.8894 3.34638 16.2751 3.29995 15.6954 3.42277C15.4357 3.47779 15.183 3.56679 14.9441 3.68852" stroke="currentColor" stroke-width="1.5" stroke-linejoin="round"/>
</svg>

<svg xmlns="http://www.w3.org/2000/svg" width="24" height="24" fill="none" viewBox="0 0 24 24"><path stroke="currentColor" stroke-linejoin="round" stroke-width="1.5" d="M15.695 16.318 10.333 12m5.362 4.318V7.682m0 8.636v2.18c0 .68-.27 1.332-.75 1.813M10.332 12l5.362-4.318M10.333 12 7.828 9.983m7.867-2.3v-2.18c0-.68-.27-1.333-.75-1.814M7.827 14.017l-3.516 2.831a.61.61 0 0 1-.813-.044l-1.071-1.076a.61.61 0 0 1 .022-.881L5.598 12m2.23 2.017 6.456 5.84q.304.273.66.454m-7.116-6.294L5.598 12m0 0L2.45 9.153a.61.61 0 0 1-.022-.881l1.071-1.076c.22-.22.57-.24.813-.044l3.516 2.83m0 0 6.456-5.839q.304-.273.66-.454m0 16.622a3.04 3.04 0 0 0 2.517.113l2.334-.937c.577-.232.955-.791.955-1.413V5.926c0-.622-.378-1.181-.955-1.413l-2.334-.937a3.04 3.04 0 0 0-2.517.113"/></svg>
